X:3550
L:1/4
M:none
K:D
 A | G A A B | =c d A d | =c B A G A | =F E D D | =F F G G | A G =F | E D |]

